src/lib/packages/icons/src/assets/filled/home-user.svg

<svg width="24" height="24" viewBox="0 0 24 24" fill="none" xmlns="http://www.w3.org/2000/svg">
<path fill-rule="evenodd" clip-rule="evenodd" d="M19.5699 8.58608L13.606 3.58498C12.677 2.80598 11.3219 2.80598 10.3929 3.58498L4.42896 8.58608C3.52296 9.34608 2.99902 9.65302 2.99902 11.651V18C2.99902 20 3.99902 21 5.99902 21H17.999C19.999 21 20.999 20 20.999 18V11.651C21 9.65202 20.4769 9.34608 19.5699 8.58608ZM12 8.50002C13.186 8.50002 14.15 9.46405 14.15 10.65C14.15 11.836 13.185 12.8001 12 12.8001C10.815 12.8001 9.84998 11.836 9.84998 10.65C9.84998 9.46405 10.814 8.50002 12 8.50002ZM15.5 17C15.5 17.276 15.276 17.5 15 17.5H9C8.724 17.5 8.5 17.276 8.5 17V16.697C8.5 15.357 9.48103 14 11.358 14H12.641C14.518 14 15.499 15.356 15.499 16.697V17H15.5Z" fill="currentColor"/>
</svg>

<svg xmlns="http://www.w3.org/2000/svg" width="24" height="24" fill="none"><path fill="currentColor" fill-rule="evenodd" d="m19.57 8.586-5.964-5.001a2.5 2.5 0 0 0-3.213 0L4.429 8.586c-.906.76-1.43 1.067-1.43 3.065V18c0 2 1 3 3 3h12c2 0 3-1 3-3v-6.349c.001-1.999-.522-2.305-1.43-3.065ZM12 8.5c1.186 0 2.15.964 2.15 2.15S13.185 12.8 12 12.8a2.153 2.153 0 0 1-2.15-2.15c0-1.186.964-2.15 2.15-2.15Zm3.5 8.5a.5.5 0 0 1-.5.5H9a.5.5 0 0 1-.5-.5v-.303c0-1.34.981-2.697 2.858-2.697h1.283c1.877 0 2.858 1.356 2.858 2.697V17h.001Z" clip-rule="evenodd"/></svg>
